X:1
T:Jesus Is the Sweetest Name I Know
T:Lela B. Long, before 1925
T:Jesus Is the Sweetest Name I Know
T:Public Domain
T:Public Domain
C:Lela B. Long, before 1925
Z:Public Domain
%%score ( 1 2 ) ( 3 4 )
L:1/8
M:4/4
K:D
V:1 treble 
V:2 treble 
V:3 bass 
V:4 bass 
V:1
 [DF]2 | [DF][DF][D^E][DF] [DG][DG][DF][C=E] | (D2 C2 D2) [FA]2 | %3
w: 1.~There|have been names that I have loved to|hear, * * But|
w: 2.~There|is no name in earth or Heav’n a-|bove, * * That|
w: 3.~And|some day I shall see Him face to|face * * To|
 [FA][FA][^E^G][FA] [=GB][GB][FA][=EG] | (D2 A,2 D2) z2 | [CE][CF] [CG]>[CF] [CE]4 | %6
w: er has there been a name so dear|To * *|heart of mine, as the|
w: should give such hon- or and such love|As * *|bless- èd name, let us|
w: and praise Him for His wond- rous grace,|Which * *|gave to me, when He|
 [DF][DG] [DB]>[DA] [DA]3 [DF] | [CE][CE][CE][CE] [DF]2 [D^G]2 | [DB]2 [CEA]4 z2 || %9
w: name di- vine, The pre- cious,|pre- cious name of Je- sus.||
w: all ac- claim, That wond- rous,|glor- ious name of Je- sus.|Je- sus|
w: made me free, The bless- èd|Son of God called Je- sus.||
"^Refrain" [DA][DA][D^G][DA] [Dd][Dd][Gc][GB] | [FA]6 [FA][GB] | [FA]>[EG] [EG]4 [GB][Gc] | %12
w: |||
w: is the sweet- est name I know, And|He’s just the|same as His love- ly|
w: |||
 [GB]>[FA] [FA]4 [FA]2 | [FA][FA][^E^G][FA] [=Gd][Gd][Gc][GB] | [FA]6 [DF]2 | %15
w: |||
w: name, And that’s the|rea- son why I love Him so; Oh,|Je- sus|
w: |||
 [DE][DE][DE][^DF] [EG][EG][CF][CE] | [A,D]6 |] %17
w: ||
w: is the sweet- est name I know. *||
w: ||
V:2
 x2 | x8 | A6 x2 | x8 | F6 x2 | x8 | x8 | x8 | x8 || x8 | x8 | x8 | x8 | x8 | x8 | x8 | x6 |] %17
w: ||nev-||this|||||||||||||
w: ||we||the|||||||||||||
w: ||thank||He|||||||||||||
V:3
 [D,A,]2 | [D,A,][D,A,][D,^G,][D,A,] [D,B,][D,B,][D,A,][=G,A,] | [F,A,]2 [E,G,]2 [D,F,]2 [D,A,]2 | %3
 [D,A,][D,A,][D,B,][D,A,] [D,G,][D,A,][D,B,][A,C] | [D,A,]2 [D,F,]2 [F,A,]2 z2 | %5
 [A,,G,][A,,F,] [A,,E,]>[A,,F,] G,2 A,2 | [D,A,][D,B,] [D,G,]>[D,F,] [D,F,]3 [D,A,] | %7
 [E,A,][E,A,][E,A,][E,A,] [E,B,]2 [E,B,]2 | [E,^G,]2 (A,2 =G,2) z2 || %9
 [D,F,][D,F,][D,^E,][D,F,] [F,A,][F,A,][D,B,][D,C] | [D,D]6 [D,D][D,D] | %11
 [A,C]>[A,C] [A,C]4 [A,D][A,E] | [D,D]>[D,D] [D,D]4 [D,D]2 | %13
 [D,A,][D,A,][D,B,][D,A,] [D,B,][D,B,][D,B,][D,C] | [D,D]6 [A,=C]2 | %15
 [G,B,][G,B,][G,B,][F,A,] [E,B,][E,B,][A,,A,][A,,G,] | [D,F,]6 |] %17
V:4
 x2 | x8 | x8 | x8 | x8 | x4 A,,4 | x8 | x8 | x2 A,,4 x2 || x8 | x8 | x8 | x8 | x8 | x8 | x8 | %16
 x6 |] %17

